X:1
T:Molly St. George
T:(Tip of the Whistle - Paddy Moloney)
C:Thomas Connellan
R:Air
S:Chieftains: Chieftains 4, Track 3
N:Played on C whistle, original key FMaj
Z:MTGuru for Chiff &amp; Fipple 2008-05-02
M:3/4
K:G
(3d>ef|{a}Hg2 (Jg{ag}f) (PPed)|Hd2 (P"3"ed) (cB)|
(PB2 Hc) B ({cB}A>{BA}G)|HE4 (3{c}(A>B)d|
(3PPe>fg Hf2 (3:2:4Je/-PPed/B|turnA2 PHB2 dD|
(EJG) .A/.B/.A/.B/ (TAG)|PPHG4|]
(3D>EF|PHG3A (B{cB}A)|(JBPB- HB2) (3PG>AB|
(c>B c)d Pef|{a}g2 PHG2 (3d>eg||
PPa2 Pb2 PPa/g/turne|((3d>eg PHe2) (3:2:4e/-PPed/B|
PA3B d/4PB3/4(PA/G/)|{B}PHA4 PAB||
(c-{d}c/B/) (cd) ef|{a}Hg>(e JHa)>g {Le}(f{gf}e/)d/-|
d>(e JHg) B {cB}(A>{BA}G)|HE4 (ef||
{a}g>{ag}f) PPeturnd HcPB|(cB) (PA{BA}G) HED|
(PPEJG) (6:4:6.A/.B/.A/.B/.A/.B/ (TAG|PHG6)|]
%%newpage
